; generated by AnycubicSlicer 1.3.0 on 2024-06-29 at 21:07:22 UTC

; 

; external perimeters extrusion width = 0.45mm
; perimeters extrusion width = 0.40mm
; infill extrusion width = 0.45mm
; solid infill extrusion width = 0.50mm
; top infill extrusion width = 0.45mm
; support material extrusion width = 0.42mm
; first layer extrusion width = 0.40mm

M73 P0 R7
M201 X2500 Y2500 Z800 E2500 ; sets maximum accelerations, mm/sec^2
M203 X300 Y250 Z8 E80 ; sets maximum feedrates, mm / sec
M204 S2500 T2500 ; sets acceleration (S) and retract acceleration (R), mm/sec^2
M205 X15.00 Y10.00 Z2.00 E10.00 ; sets the jerk limits, mm/sec
M205 S0 T0 ; sets the minimum extruding and travel feed rate, mm/sec
;TYPE:Custom
G90 ; use absolute coordinates
M83 ; extruder relative mode
M104 S200 ; set extruder temp
M140 S60 ; set bed temp
M190 S60 ; wait for bed temp
M109 S200 ; wait for extruder temp
G28                                        ; move X/Y/Z to min endstops
G1 Z0.28                                   ; lift nozzle a bit 
G92 E0 
G1 Y3 F1800                                    ; zero the extruded length 
G1 X60  E25 F500                       ; Extrude 25mm of filament in a 5cm line. 
G92 E0                                     ; zero the extruded length again 
G1 E-2 F500                                ; Retract a little 
M73 P1 R7
G1 X70 F4000                              ; Quickly wipe away from the filament line
M117
G21 ; set units to millimeters
G90 ; use absolute coordinates
M82 ; use absolute distances for extrusion
G92 E0
; Filament gcode
M107
;LAYER_CHANGE
;Z:0.2
;HEIGHT:0.2
; BEFORE_LAYER_CHANGE 0 @ 0.2mm
G1 E-2 F4800
G92 E0
G1 Z.2 F7200
; AFTER_LAYER_CHANGE 0 @ 0.2mm
G1 X114.066 Y105.516
G1 E2 F4800
M204 S2000
;TYPE:External perimeter
;WIDTH:0.4
G1 F1589
G1 X115 Y105.47 E2.02777
G1 X115.913 Y105.515 E2.05491
G1 X116.86 Y105.653 E2.08332
G1 X117.766 Y105.881 E2.11106
G1 X118.646 Y106.196 E2.13881
G1 X119.492 Y106.596 E2.1666
G1 X120.294 Y107.076 E2.19435
G1 X121.046 Y107.634 E2.22215
G1 X121.738 Y108.262 E2.2499
G1 X122.366 Y108.954 E2.27765
G1 X122.924 Y109.706 E2.30545
G1 X123.404 Y110.508 E2.3332
G1 X123.804 Y111.354 E2.36099
G1 X124.119 Y112.234 E2.38874
M73 P2 R7
G1 X124.347 Y113.141 E2.41651
G1 X124.484 Y114.066 E2.44427
G1 X124.53 Y115 E2.47204
G1 X124.484 Y115.934 E2.49981
G1 X124.347 Y116.859 E2.52757
G1 X124.119 Y117.766 E2.55534
G1 X123.804 Y118.646 E2.58309
G1 X123.404 Y119.492 E2.61088
G1 X122.924 Y120.294 E2.63863
G1 X122.366 Y121.046 E2.66643
G1 X121.738 Y121.738 E2.69418
G1 X121.046 Y122.366 E2.72193
G1 X120.294 Y122.924 E2.74973
G1 X119.492 Y123.404 E2.77748
G1 X118.646 Y123.804 E2.80527
G1 X117.766 Y124.119 E2.83302
G1 X116.859 Y124.347 E2.86079
G1 X115.934 Y124.484 E2.88855
G1 X115 Y124.53 E2.91632
G1 X114.066 Y124.484 E2.94409
G1 X113.141 Y124.347 E2.97185
G1 X112.234 Y124.119 E2.99962
G1 X111.354 Y123.804 E3.02737
G1 X110.508 Y123.404 E3.05516
G1 X109.706 Y122.924 E3.08291
G1 X108.954 Y122.366 E3.11071
G1 X108.262 Y121.738 E3.13846
G1 X107.634 Y121.046 E3.16621
G1 X107.076 Y120.294 E3.19401
G1 X106.596 Y119.492 E3.22176
G1 X106.196 Y118.646 E3.24955
G1 X105.881 Y117.766 E3.2773
G1 X105.653 Y116.859 E3.30507
G1 X105.516 Y115.934 E3.33283
G1 X105.47 Y115 E3.3606
G1 X105.516 Y114.066 E3.38837
G1 X105.653 Y113.141 E3.41613
G1 X105.881 Y112.234 E3.4439
G1 X106.196 Y111.354 E3.47165
G1 X106.596 Y110.508 E3.49944
G1 X107.076 Y109.706 E3.52719
G1 X107.634 Y108.954 E3.55499
G1 X108.262 Y108.262 E3.58274
G1 X108.954 Y107.634 E3.61049
G1 X109.706 Y107.076 E3.63829
G1 X110.508 Y106.596 E3.66604
G1 X111.354 Y106.196 E3.69383
G1 X112.234 Y105.881 E3.72158
G1 X113.141 Y105.653 E3.74935
G1 X114.007 Y105.525 E3.77534
M204 S2500
G1 X114.299 Y105.841 F7200
G1 X114.101 Y105.872
M204 S2000
;TYPE:Perimeter
G1 F1589
G1 X115 Y105.828 E3.80206
G1 X115.878 Y105.871 E3.82816
G1 X116.79 Y106.004 E3.85552
G1 X117.662 Y106.223 E3.88221
G1 X118.51 Y106.526 E3.90895
G1 X119.324 Y106.911 E3.93569
G1 X120.095 Y107.374 E3.96239
G1 X120.819 Y107.91 E3.98914
G1 X121.486 Y108.514 E4.01586
G1 X122.09 Y109.181 E4.04258
G1 X122.626 Y109.905 E4.06933
G1 X123.089 Y110.676 E4.09603
G1 X123.474 Y111.49 E4.12277
G1 X123.777 Y112.338 E4.14951
G1 X123.996 Y113.21 E4.1762
G1 X124.128 Y114.101 E4.20294
G1 X124.172 Y115 E4.22966
G1 X124.128 Y115.899 E4.25638
G1 X123.996 Y116.79 E4.28312
G1 X123.777 Y117.662 E4.30981
G1 X123.474 Y118.51 E4.33655
G1 X123.089 Y119.324 E4.36329
G1 X122.626 Y120.095 E4.38999
G1 X122.09 Y120.819 E4.41674
G1 X121.486 Y121.486 E4.44346
G1 X120.819 Y122.09 E4.47018
G1 X120.095 Y122.626 E4.49693
G1 X119.324 Y123.089 E4.52363
G1 X118.51 Y123.474 E4.55037
G1 X117.662 Y123.777 E4.57711
G1 X116.79 Y123.996 E4.6038
G1 X115.899 Y124.128 E4.63054
G1 X115 Y124.172 E4.65726
G1 X114.101 Y124.128 E4.68398
G1 X113.21 Y123.996 E4.71072
G1 X112.338 Y123.777 E4.73741
G1 X111.49 Y123.474 E4.76415
G1 X110.676 Y123.089 E4.79089
G1 X109.905 Y122.626 E4.81759
G1 X109.181 Y122.09 E4.84434
G1 X108.514 Y121.486 E4.87106
G1 X107.91 Y120.819 E4.89778
G1 X107.374 Y120.095 E4.92453
G1 X106.911 Y119.324 E4.95123
G1 X106.526 Y118.51 E4.97797
G1 X106.223 Y117.662 E5.00471
G1 X106.004 Y116.79 E5.0314
G1 X105.872 Y115.899 E5.05814
G1 X105.828 Y115 E5.08486
G1 X105.872 Y114.101 E5.11158
G1 X106.004 Y113.21 E5.13832
G1 X106.223 Y112.338 E5.16501
G1 X106.526 Y111.49 E5.19175
G1 X106.911 Y110.676 E5.21849
G1 X107.374 Y109.905 E5.24519
G1 X107.91 Y109.181 E5.27194
G1 X108.514 Y108.514 E5.29866
G1 X109.181 Y107.91 E5.32538
G1 X109.905 Y107.374 E5.35213
G1 X110.676 Y106.911 E5.37883
G1 X111.49 Y106.526 E5.40557
G1 X112.338 Y106.223 E5.43231
G1 X113.21 Y106.004 E5.459
G1 X114.042 Y105.88 E5.48398
M204 S2500
G1 X114.136 Y106.227 F7200
M204 S2000
G1 F1589
G1 X115 Y106.185 E5.50966
G1 X115.843 Y106.226 E5.53472
G1 X116.721 Y106.355 E5.56107
G1 X117.558 Y106.565 E5.58669
G1 X118.373 Y106.857 E5.61239
G1 X119.155 Y107.226 E5.63806
G1 X119.897 Y107.671 E5.66375
G1 X120.592 Y108.186 E5.68943
G1 X121.233 Y108.767 E5.71512
G1 X121.814 Y109.408 E5.74081
G1 X122.329 Y110.103 E5.76649
G1 X122.774 Y110.845 E5.79218
G1 X123.143 Y111.627 E5.81785
G1 X123.435 Y112.442 E5.84355
G1 X123.646 Y113.28 E5.86921
G1 X123.773 Y114.136 E5.8949
G1 X123.815 Y115 E5.92058
G1 X123.773 Y115.864 E5.94626
M73 P3 R7
G1 X123.646 Y116.72 E5.97195
G1 X123.435 Y117.558 E5.99761
G1 X123.143 Y118.373 E6.02331
G1 X122.774 Y119.155 E6.04898
G1 X122.329 Y119.897 E6.07467
G1 X121.814 Y120.592 E6.10035
G1 X121.233 Y121.233 E6.12604
G1 X120.592 Y121.814 E6.15173
G1 X119.897 Y122.329 E6.17741
G1 X119.155 Y122.774 E6.2031
G1 X118.373 Y123.143 E6.22877
G1 X117.558 Y123.435 E6.25447
G1 X116.72 Y123.646 E6.28013
G1 X115.864 Y123.773 E6.30582
G1 X115 Y123.815 E6.3315
G1 X114.136 Y123.773 E6.35718
G1 X113.28 Y123.646 E6.38287
G1 X112.442 Y123.435 E6.40853
G1 X111.627 Y123.143 E6.43423
G1 X110.845 Y122.774 E6.4599
G1 X110.103 Y122.329 E6.48559
G1 X109.408 Y121.814 E6.51127
G1 X108.767 Y121.233 E6.53696
G1 X108.186 Y120.592 E6.56265
G1 X107.671 Y119.897 E6.58833
G1 X107.226 Y119.155 E6.61402
G1 X106.857 Y118.373 E6.63969
G1 X106.565 Y117.558 E6.66539
G1 X106.354 Y116.72 E6.69105
G1 X106.227 Y115.864 E6.71674
G1 X106.185 Y115 E6.74242
G1 X106.227 Y114.136 E6.7681
G1 X106.354 Y113.28 E6.79379
G1 X106.565 Y112.442 E6.81945
G1 X106.857 Y111.627 E6.84515
G1 X107.226 Y110.845 E6.87082
G1 X107.671 Y110.103 E6.89651
G1 X108.186 Y109.408 E6.92219
G1 X108.767 Y108.767 E6.94788
G1 X109.408 Y108.186 E6.97357
G1 X110.103 Y107.671 E6.99925
G1 X110.845 Y107.226 E7.02494
G1 X111.627 Y106.857 E7.05061
G1 X112.442 Y106.565 E7.07631
G1 X113.28 Y106.354 E7.10197
G1 X114.077 Y106.236 E7.12589
M204 S2500
G1 E5.72589 F4800
;WIPE_START
G1 F5760
G1 X114.834 Y106.194 E5.12589
;WIPE_END
G92 E0
G1 X121.64 Y115.602 F7200
G1 E2 F4800
M204 S2000
;TYPE:External perimeter
G1 F1589
G1 X121.545 Y116.242 E2.01921
G1 X121.388 Y116.873 E2.03852
G1 X121.169 Y117.485 E2.05782
G1 X120.89 Y118.072 E2.07712
G1 X120.556 Y118.629 E2.0964
G1 X120.17 Y119.151 E2.11568
G1 X119.734 Y119.634 E2.135
G1 X119.251 Y120.07 E2.15432
G1 X118.729 Y120.456 E2.1736
G1 X118.172 Y120.79 E2.19288
G1 X117.585 Y121.069 E2.21218
G1 X116.973 Y121.288 E2.23148
G1 X116.342 Y121.445 E2.25079
G1 X115.7 Y121.541 E2.27006
G1 X115.05 Y121.573 E2.28938
G1 X114.4 Y121.541 E2.3087
G1 X113.758 Y121.445 E2.32797
G1 X113.127 Y121.288 E2.34728
G1 X112.515 Y121.069 E2.36658
G1 X111.928 Y120.79 E2.38588
G1 X111.371 Y120.456 E2.40516
G1 X110.849 Y120.07 E2.42444
G1 X110.366 Y119.634 E2.44376
G1 X109.93 Y119.151 E2.46308
G1 X109.544 Y118.629 E2.48236
G1 X109.21 Y118.072 E2.50164
G1 X108.931 Y117.485 E2.52094
G1 X108.712 Y116.873 E2.54024
G1 X108.555 Y116.242 E2.55955
G1 X108.459 Y115.6 E2.57882
G1 X108.427 Y114.95 E2.59814
G1 X108.459 Y114.3 E2.61746
G1 X108.555 Y113.658 E2.63673
G1 X108.712 Y113.027 E2.65604
G1 X108.931 Y112.415 E2.67534
G1 X109.21 Y111.828 E2.69464
G1 X109.544 Y111.271 E2.71392
G1 X109.93 Y110.749 E2.7332
G1 X110.366 Y110.266 E2.75252
G1 X110.849 Y109.83 E2.77184
G1 X111.371 Y109.444 E2.79112
G1 X111.928 Y109.11 E2.8104
G1 X112.515 Y108.831 E2.8297
G1 X113.127 Y108.612 E2.849
G1 X113.758 Y108.455 E2.86831
G1 X114.4 Y108.359 E2.88758
G1 X115.036 Y108.327 E2.90649
G1 X115.699 Y108.359 E2.9262
G1 X116.342 Y108.455 E2.9455
G1 X116.973 Y108.612 E2.96481
G1 X117.585 Y108.831 E2.98411
G1 X118.172 Y109.11 E3.00341
G1 X118.729 Y109.444 E3.02269
G1 X119.251 Y109.83 E3.04197
G1 X119.734 Y110.266 E3.06129
G1 X120.17 Y110.749 E3.08061
G1 X120.556 Y111.271 E3.09989
G1 X120.89 Y111.828 E3.11917
G1 X121.169 Y112.415 E3.13847
G1 X121.388 Y113.027 E3.15777
G1 X121.545 Y113.658 E3.17708
G1 X121.641 Y114.301 E3.19638
G1 X121.672 Y114.95 E3.21567
G1 X121.644 Y115.543 E3.2333
M204 S2500
G1 X121.965 Y115.836 F7200
G1 X121.997 Y115.618
M204 S2000
;TYPE:Perimeter
G1 F1589
G1 X121.896 Y116.312 E3.25412
G1 X121.73 Y116.977 E3.27447
G1 X121.499 Y117.622 E3.29481
G1 X121.206 Y118.241 E3.31514
G1 X120.854 Y118.828 E3.33546
G1 X120.446 Y119.378 E3.35579
G1 X119.986 Y119.886 E3.37614
G1 X119.478 Y120.346 E3.39649
G1 X118.928 Y120.754 E3.41682
G1 X118.341 Y121.106 E3.43714
G1 X117.722 Y121.399 E3.45747
G1 X117.077 Y121.63 E3.47781
G1 X116.412 Y121.796 E3.49816
G1 X115.735 Y121.897 E3.51848
G1 X115.05 Y121.931 E3.53884
G1 X114.365 Y121.897 E3.5592
G1 X113.688 Y121.796 E3.57952
G1 X113.023 Y121.63 E3.59987
G1 X112.378 Y121.399 E3.62021
G1 X111.759 Y121.106 E3.64054
G1 X111.172 Y120.754 E3.66086
G1 X110.622 Y120.346 E3.68119
G1 X110.114 Y119.886 E3.70154
G1 X109.654 Y119.378 E3.72189
G1 X109.246 Y118.828 E3.74222
G1 X108.894 Y118.241 E3.76254
G1 X108.601 Y117.622 E3.78287
G1 X108.37 Y116.977 E3.80321
G1 X108.204 Y116.312 E3.82356
G1 X108.103 Y115.635 E3.84388
G1 X108.069 Y114.95 E3.86424
G1 X108.103 Y114.265 E3.8846
G1 X108.204 Y113.588 E3.90492
G1 X108.37 Y112.923 E3.92527
G1 X108.601 Y112.278 E3.94561
G1 X108.894 Y111.659 E3.96594
G1 X109.246 Y111.072 E3.98626
G1 X109.654 Y110.522 E4.00659
G1 X110.114 Y110.014 E4.02694
G1 X110.622 Y109.554 E4.04729
G1 X111.172 Y109.146 E4.06762
G1 X111.759 Y108.794 E4.08794
G1 X112.378 Y108.501 E4.10827
G1 X113.023 Y108.27 E4.12861
G1 X113.688 Y108.104 E4.14896
G1 X114.365 Y108.003 E4.16928
G1 X115.036 Y107.97 E4.18923
G1 X115.734 Y108.003 E4.20998
M73 P4 R7
G1 X116.412 Y108.104 E4.23033
G1 X117.077 Y108.27 E4.25068
G1 X117.722 Y108.501 E4.27102
G1 X118.341 Y108.794 E4.29135
G1 X118.928 Y109.146 E4.31167
G1 X119.478 Y109.554 E4.332
G1 X119.986 Y110.014 E4.35235
G1 X120.446 Y110.522 E4.3727
G1 X120.854 Y111.072 E4.39303
G1 X121.206 Y111.659 E4.41335
G1 X121.499 Y112.278 E4.43368
G1 X121.73 Y112.923 E4.45402
G1 X121.896 Y113.588 E4.47437
G1 X121.997 Y114.266 E4.49472
G1 X122.03 Y114.95 E4.51505
G1 X122 Y115.558 E4.53312
M204 S2500
G1 X122.354 Y115.637 F7200
M204 S2000
G1 F1589
G1 X122.247 Y116.382 E4.55547
G1 X122.072 Y117.08 E4.57684
G1 X121.83 Y117.759 E4.59824
G1 X121.521 Y118.41 E4.61964
G1 X121.151 Y119.026 E4.64098
G1 X120.723 Y119.604 E4.66233
G1 X120.239 Y120.139 E4.68375
G1 X119.704 Y120.623 E4.70517
G1 X119.126 Y121.051 E4.72652
G1 X118.51 Y121.421 E4.74786
G1 X117.858 Y121.73 E4.76928
G1 X117.18 Y121.972 E4.79065
G1 X116.482 Y122.146 E4.81201
G1 X115.77 Y122.252 E4.83338
G1 X115.05 Y122.288 E4.85478
G1 X114.33 Y122.252 E4.87618
G1 X113.618 Y122.146 E4.89755
G1 X112.92 Y121.972 E4.91891
G1 X112.242 Y121.73 E4.94028
G1 X111.59 Y121.421 E4.9617
G1 X110.974 Y121.051 E4.98304
G1 X110.396 Y120.623 E5.00439
G1 X109.861 Y120.139 E5.02581
G1 X109.377 Y119.604 E5.04723
G1 X108.949 Y119.026 E5.06858
G1 X108.579 Y118.41 E5.08992
G1 X108.27 Y117.758 E5.11134
G1 X108.028 Y117.08 E5.13271
G1 X107.854 Y116.382 E5.15407
G1 X107.748 Y115.67 E5.17544
G1 X107.712 Y114.95 E5.19684
G1 X107.748 Y114.23 E5.21824
G1 X107.854 Y113.518 E5.23961
G1 X108.028 Y112.82 E5.26097
G1 X108.27 Y112.142 E5.28234
G1 X108.579 Y111.49 E5.30376
G1 X108.949 Y110.874 E5.3251
G1 X109.377 Y110.296 E5.34645
G1 X109.861 Y109.761 E5.36787
G1 X110.396 Y109.277 E5.38929
G1 X110.974 Y108.849 E5.41064
G1 X111.59 Y108.479 E5.43198
G1 X112.241 Y108.17 E5.45338
G1 X112.92 Y107.928 E5.47478
G1 X113.618 Y107.754 E5.49614
G1 X114.33 Y107.648 E5.51751
G1 X115.035 Y107.612 E5.53847
G1 X115.769 Y107.647 E5.56029
G1 X116.482 Y107.754 E5.5817
G1 X117.18 Y107.928 E5.60306
G1 X117.858 Y108.17 E5.62443
G1 X118.51 Y108.479 E5.64585
G1 X119.126 Y108.849 E5.66719
G1 X119.704 Y109.277 E5.68854
G1 X120.239 Y109.761 E5.70996
G1 X120.723 Y110.296 E5.73138
G1 X121.151 Y110.874 E5.75273
G1 X121.521 Y111.49 E5.77407
G1 X121.83 Y112.142 E5.79549
G1 X122.072 Y112.82 E5.81686
G1 X122.246 Y113.518 E5.83822
G1 X122.352 Y114.231 E5.85962
G1 X122.387 Y114.95 E5.88099
G1 X122.357 Y115.577 E5.89963
M204 S2500
G1 E4.49963 F4800
;WIPE_START
G1 F5760
G1 X122.254 Y116.328 E3.89963
;WIPE_END
G92 E0
G1 X122.195 Y110.163 F7200
G1 E2 F4800
M204 S2000
;TYPE:Solid infill
;WIDTH:0.404981
G1 F1589
G1 X120.983 Y108.95 E2.05162
G1 X120.399 Y108.421 E2.07534
G1 X119.728 Y107.924 E2.10048
G1 X119.019 Y107.499 E2.12537
G1 X122.501 Y110.981 E2.27362
G1 X122.863 Y111.744 E2.29904
G1 X122.924 Y111.916 E2.30453
G1 X118.084 Y107.076 E2.5106
G1 X117.47 Y106.855 E2.53025
G1 X117.313 Y106.816 E2.53512
G1 X118.79 Y108.293 E2.598
G1 X119.295 Y108.596 E2.61573
G1 X119.897 Y109.042 E2.63829
G1 X120.454 Y109.546 E2.6609
G1 X120.958 Y110.103 E2.68351
G1 X121.404 Y110.705 E2.70607
G1 X121.707 Y111.21 E2.7238
G1 X123.405 Y112.908 E2.79609
M204 S2500
G1 E1.39609 F4800
;WIPE_START
G1 F5760
G1 X122.869 Y112.372 E.79609
;WIPE_END
G92 E0
G1 X121.863 Y111.878 F7200
G1 E2 F4800
M204 S2000
G1 F1589
G1 X123.352 Y113.367 E2.0634
G1 X123.441 Y113.968 E2.08169
G1 X122.416 Y112.943 E2.12533
G1 X122.566 Y113.606 E2.14579
G1 X123.488 Y114.527 E2.18502
G1 X123.508 Y115.059 E2.20105
G1 X122.655 Y114.207 E2.23735
G1 X122.681 Y114.745 E2.25357
G1 X123.484 Y115.548 E2.28776
G1 X123.47 Y115.834 E2.29638
G1 X123.443 Y116.018 E2.30198
G1 X122.677 Y115.252 E2.33459
G1 X122.649 Y115.737 E2.34922
G1 X123.377 Y116.464 E2.38019
G1 X123.29 Y116.89 E2.39328
G1 X122.583 Y116.183 E2.42338
G1 X122.502 Y116.613 E2.43655
G1 X123.187 Y117.299 E2.46574
G1 X123.145 Y117.47 E2.47104
G1 X123.066 Y117.69 E2.47808
G1 X122.399 Y117.023 E2.50648
G1 X122.276 Y117.412 E2.51876
G1 X122.931 Y118.067 E2.54665
G1 X122.863 Y118.256 E2.5527
G1 X122.781 Y118.429 E2.55846
G1 X122.141 Y117.789 E2.58571
G1 X121.983 Y118.143 E2.59738
G1 X122.617 Y118.777 E2.62437
G1 X122.444 Y119.115 E2.6358
G1 X121.818 Y118.49 E2.66243
G1 X121.631 Y118.815 E2.67372
G1 X122.252 Y119.436 E2.70016
G1 X122.076 Y119.728 E2.71042
G1 X122.058 Y119.753 E2.71135
G1 X121.439 Y119.135 E2.73768
G1 X121.226 Y119.434 E2.74873
G1 X121.84 Y120.047 E2.77485
M73 P5 R7
G1 X121.622 Y120.342 E2.78589
G1 X121.009 Y119.729 E2.81199
G1 X120.771 Y120.003 E2.82292
G1 X121.383 Y120.615 E2.84898
G1 X121.14 Y120.884 E2.85989
G1 X120.528 Y120.272 E2.88595
G1 X120.267 Y120.523 E2.89685
G1 X120.884 Y121.14 E2.92312
G1 X120.615 Y121.383 E2.93403
G1 X119.998 Y120.766 E2.9603
G1 X119.714 Y120.994 E2.97126
G1 X120.341 Y121.622 E2.99798
G1 X120.047 Y121.84 E3.009
