; generated by AnycubicSlicer 1.3.0 on 2024-07-27 at 11:57:14 UTC

; 

; external perimeters extrusion width = 0.45mm
; perimeters extrusion width = 0.40mm
; infill extrusion width = 0.45mm
; solid infill extrusion width = 0.50mm
; top infill extrusion width = 0.45mm
; support material extrusion width = 0.42mm
; first layer extrusion width = 0.40mm

M73 P0 R100
M201 X2500 Y2500 Z800 E2500 ; sets maximum accelerations, mm/sec^2
M203 X300 Y250 Z8 E80 ; sets maximum feedrates, mm / sec
M204 S2500 T2500 ; sets acceleration (S) and retract acceleration (R), mm/sec^2
M205 X15.00 Y10.00 Z2.00 E10.00 ; sets the jerk limits, mm/sec
M205 S0 T0 ; sets the minimum extruding and travel feed rate, mm/sec
;TYPE:Custom
G90 ; use absolute coordinates
M83 ; extruder relative mode
M104 S200 ; set extruder temp
M140 S65 ; set bed temp
M190 S65 ; wait for bed temp
M109 S200 ; wait for extruder temp
G28                                        ; move X/Y/Z to min endstops
G1 Z0.28                                   ; lift nozzle a bit 
G92 E0 
G1 Y3 F1800                                    ; zero the extruded length 
G1 X60  E25 F500                       ; Extrude 25mm of filament in a 5cm line. 
G92 E0                                     ; zero the extruded length again 
G1 E-2 F500                                ; Retract a little 
G1 X70 F4000                              ; Quickly wipe away from the filament line
M117
G21 ; set units to millimeters
G90 ; use absolute coordinates
M82 ; use absolute distances for extrusion
G92 E0
; Filament gcode
M107
;LAYER_CHANGE
;Z:0.2
;HEIGHT:0.2
; BEFORE_LAYER_CHANGE 0 @ 0.2mm
G1 E-2 F4800
G92 E0
G1 Z.2 F7200
; AFTER_LAYER_CHANGE 0 @ 0.2mm
G1 X98.397 Y88.018
G1 E2 F4800
M204 S2000
;TYPE:Skirt/Brim
;WIDTH:0.4
G1 F3000
G1 X99.445 Y87.092 E2.04152
G1 X100.532 Y86.572 E2.0773
G1 X101.768 Y86.325 E2.11472
G1 X128.276 Y86.329 E2.90178
G1 X129.311 Y86.522 E2.93304
G1 X130.318 Y86.946 E2.96548
G1 X131.527 Y87.912 E3.01143
G1 X132.423 Y89.295 E3.06036
G1 X132.821 Y90.887 E3.10908
G1 X132.821 Y131.35 E4.31048
G1 X131.172 Y140.026 E4.57269
G1 X130.945 Y140.727 E4.59457
G1 X129.781 Y142.359 E4.65409
G1 X128.915 Y143 E4.68608
G1 X127.939 Y143.443 E4.7179
G1 X126.917 Y143.648 E4.74885
G1 X125.565 Y143.656 E4.78899
G1 X124.283 Y143.348 E4.82814
G1 X123.304 Y142.838 E4.86092
G1 X122.454 Y142.115 E4.89405
G1 X121.409 Y140.705 E4.94616
G1 X120.839 Y140.092 E4.97101
G1 X120.203 Y139.57 E4.99544
G1 X119.503 Y139.138 E5.01986
G1 X118.707 Y138.784 E5.04573
G1 X116.892 Y138.184 E5.10249
G1 X115.753 Y137.393 E5.14366
G1 X114.994 Y136.429 E5.18009
G1 X114.25 Y137.39 E5.21618
G1 X113.108 Y138.184 E5.25748
G1 X111.293 Y138.783 E5.31423
G1 X110.497 Y139.137 E5.3401
G1 X109.797 Y139.57 E5.36454
G1 X109.161 Y140.092 E5.38897
G1 X108.598 Y140.698 E5.41353
G1 X107.625 Y142.026 E5.46241
G1 X106.4 Y143.027 E5.50938
G1 X105.313 Y143.486 E5.54441
G1 X104.159 Y143.677 E5.57914
G1 X102.775 Y143.615 E5.62027
G1 X101.463 Y143.203 E5.6611
G1 X100.439 Y142.533 E5.69743
G1 X99.835 Y141.964 E5.72207
G1 X98.867 Y140.203 E5.78174
G1 X97.179 Y131.352 E6.04927
G1 X97.179 Y90.81 E7.25301
G1 X97.685 Y89.055 E7.30724
G1 X98.363 Y88.068 E7.34279
M204 S2500
G1 X98.649 Y88.272 F7200
M204 S2000
G1 F3000
G1 X99.662 Y87.377 E7.38292
G1 X100.664 Y86.905 E7.41581
G1 X101.785 Y86.682 E7.44975
G1 X128.259 Y86.686 E8.2358
G1 X129.225 Y86.869 E8.26499
G1 X130.155 Y87.264 E8.29499
G1 X131.28 Y88.172 E8.33792
G1 X132.084 Y89.412 E8.3818
G1 X132.463 Y90.91 E8.42768
G1 X132.463 Y131.333 E9.62789
G1 X130.824 Y139.948 E9.88827
G1 X130.614 Y140.59 E9.90833
G1 X129.545 Y142.09 E9.96302
G1 X128.749 Y142.683 E9.99249
G1 X127.81 Y143.11 E10.02312
G1 X126.898 Y143.291 E10.05073
G1 X125.585 Y143.298 E10.08972
G1 X124.389 Y143.007 E10.12627
G1 X123.489 Y142.532 E10.15649
G1 X122.703 Y141.857 E10.18725
G1 X121.684 Y140.477 E10.23818
G1 X121.084 Y139.831 E10.26436
G1 X120.411 Y139.278 E10.29022
G1 X119.67 Y138.821 E10.31607
G1 X118.835 Y138.45 E10.3432
G1 X117.074 Y137.876 E10.39819
G1 X115.98 Y137.116 E10.43774
G1 X114.991 Y135.839 E10.4857
G1 X114.022 Y137.114 E10.53325
G1 X112.926 Y137.876 E10.57288
G1 X111.165 Y138.45 E10.62787
G1 X110.33 Y138.821 E10.655
G1 X109.589 Y139.278 E10.68085
G1 X108.916 Y139.831 E10.70671
G1 X108.321 Y140.471 E10.73266
G1 X107.38 Y141.765 E10.78017
G1 X106.235 Y142.709 E10.82423
G1 X105.232 Y143.137 E10.85661
G1 X104.154 Y143.32 E10.88908
G1 X102.86 Y143.267 E10.92753
G1 X101.595 Y142.87 E10.9669
G1 X100.649 Y142.244 E11.00058
G1 X100.102 Y141.725 E11.02297
G1 X99.194 Y140.057 E11.07936
G1 X97.537 Y131.335 E11.34296
G1 X97.537 Y90.836 E12.54543
G1 X98.019 Y89.183 E12.59655
G1 X98.615 Y88.321 E12.62767
M204 S2500
G1 X98.904 Y88.523 F7200
M204 S2000
G1 F3000
G1 X99.839 Y87.687 E12.66491
G1 X100.756 Y87.25 E12.69507
G1 X101.803 Y87.039 E12.72678
G1 X128.242 Y87.043 E13.51179
G1 X129.138 Y87.216 E13.53888
G1 X129.991 Y87.582 E13.56644
G1 X131.032 Y88.43 E13.60631
G1 X131.768 Y89.579 E13.64682
G1 X132.106 Y90.931 E13.6882
G1 X132.106 Y131.316 E14.88728
G1 X130.475 Y139.869 E15.14581
M73 P0 R99
G1 X130.283 Y140.452 E15.16403
G1 X129.309 Y141.82 E15.21389
G1 X128.552 Y142.385 E15.24194
G1 X127.683 Y142.776 E15.27023
G1 X126.88 Y142.934 E15.29453
G1 X125.606 Y142.941 E15.33236
G1 X124.498 Y142.666 E15.36626
G1 X123.675 Y142.227 E15.39395
G1 X122.952 Y141.601 E15.42235
G1 X121.96 Y140.249 E15.47214
G1 X121.33 Y139.57 E15.49964
G1 X120.619 Y138.987 E15.52694
G1 X119.837 Y138.505 E15.55421
G1 X118.962 Y138.115 E15.58265
G1 X117.254 Y137.566 E15.63592
G1 X116.245 Y136.875 E15.67223
G1 X115.397 Y135.779 E15.71337
G1 X115.126 Y134.995 E15.738
G1 X114.869 Y134.998 E15.74563
G1 X114.636 Y135.716 E15.76804
G1 X113.756 Y136.874 E15.81122
G1 X112.746 Y137.566 E15.84757
G1 X111.038 Y138.115 E15.90084
G1 X110.163 Y138.504 E15.92927
G1 X109.381 Y138.987 E15.95656
G1 X108.671 Y139.57 E15.98384
G1 X108.044 Y140.244 E16.01117
G1 X107.134 Y141.506 E16.05737
G1 X106.07 Y142.392 E16.09848
G1 X105.149 Y142.789 E16.12826
G1 X104.148 Y142.962 E16.15842
G1 X102.941 Y142.919 E16.19428
G1 X101.77 Y142.557 E16.23067
G1 X100.86 Y141.955 E16.26307
G1 X100.369 Y141.487 E16.28321
G1 X99.522 Y139.913 E16.33628
G1 X97.894 Y131.318 E16.59601
G1 X97.894 Y90.861 E17.79723
G1 X98.33 Y89.361 E17.84361
G1 X98.87 Y88.572 E17.872
M204 S2500
G1 X99.157 Y88.775 F7200
M204 S2000
G1 F3000
G1 X100.057 Y87.972 E17.90781
G1 X100.887 Y87.583 E17.93503
G1 X101.82 Y87.396 E17.96328
G1 X128.224 Y87.4 E18.74725
G1 X129.049 Y87.563 E18.77222
G1 X129.825 Y87.9 E18.79734
G1 X130.783 Y88.687 E18.83415
G1 X131.45 Y89.745 E18.87128
G1 X131.749 Y90.953 E18.90823
G1 X131.749 Y131.299 E20.10615
G1 X130.127 Y139.791 E20.36285
G1 X129.953 Y140.314 E20.37922
G1 X129.073 Y141.551 E20.42429
G1 X128.355 Y142.087 E20.45089
G1 X127.557 Y142.441 E20.47681
G1 X126.861 Y142.577 E20.49787
G1 X125.627 Y142.584 E20.53451
G1 X124.607 Y142.325 E20.56576
G1 X123.894 Y141.944 E20.58976
G1 X123.201 Y141.344 E20.61698
G1 X122.236 Y140.022 E20.66558
G1 X121.575 Y139.31 E20.69443
G1 X120.827 Y138.696 E20.72316
G1 X120.005 Y138.188 E20.75185
G1 X119.09 Y137.781 E20.78158
G1 X117.389 Y137.235 E20.83462
G1 X116.472 Y136.598 E20.86777
G1 X115.699 Y135.587 E20.90556
G1 X115.283 Y134.325 E20.94501
G1 X115.284 Y130.37 E21.06244
G1 X115.501 Y129.568 E21.08711
G1 X115.869 Y128.848 E21.11112
G1 X116.701 Y127.946 E21.14755
G1 X117.656 Y127.381 E21.1805
G1 X118.757 Y127.105 E21.2142
G1 X121.251 Y127.105 E21.28825
G1 X121.251 Y100.026 E22.09226
G1 X108.749 Y100.026 E22.46346
G1 X108.749 Y127.11 E23.26762
G1 X111.506 Y127.142 E23.34948
G1 X112.57 Y127.477 E23.3826
G1 X113.202 Y127.864 E23.4046
G1 X113.786 Y128.409 E23.42832
G1 X114.321 Y129.175 E23.45606
G1 X114.72 Y130.398 E23.49426
G1 X114.735 Y134.21 E23.60744
G1 X114.331 Y135.528 E23.64837
G1 X113.528 Y136.598 E23.68809
G1 X112.611 Y137.235 E23.72124
G1 X110.91 Y137.781 E23.77428
G1 X109.996 Y138.188 E23.80399
G1 X109.173 Y138.696 E23.83271
G1 X108.425 Y139.31 E23.86144
G1 X107.767 Y140.018 E23.89014
G1 X106.887 Y141.247 E23.93502
G1 X105.904 Y142.074 E23.97316
G1 X105.027 Y142.453 E24.00153
G1 X104.142 Y142.605 E24.02819
G1 X102.979 Y142.563 E24.06274
G1 X101.902 Y142.225 E24.09626
G1 X101.072 Y141.668 E24.12594
G1 X100.637 Y141.249 E24.14387
G1 X99.868 Y139.819 E24.19208
G1 X98.251 Y131.301 E24.44951
G1 X98.251 Y90.888 E25.64942
G1 X98.664 Y89.49 E25.6927
G1 X99.123 Y88.825 E25.71669
M204 S2500
G1 X99.41 Y89.028 F7200
M204 S2000
G1 F3000
G1 X100.275 Y88.256 E25.75111
G1 X101.016 Y87.916 E25.77532
G1 X101.838 Y87.754 E25.8002
G1 X128.206 Y87.757 E26.5831
G1 X128.959 Y87.909 E26.60591
G1 X129.657 Y88.216 E26.62855
G1 X130.532 Y88.943 E26.66233
G1 X131.132 Y89.908 E26.69607
G1 X131.392 Y90.974 E26.72865
G1 X131.392 Y131.282 E27.92545
G1 X129.778 Y139.711 E28.18026
G1 X129.623 Y140.175 E28.19479
G1 X128.836 Y141.283 E28.23514
G1 X128.191 Y141.769 E28.25912
G1 X127.43 Y142.106 E28.28383
G1 X126.843 Y142.22 E28.30158
G1 X125.648 Y142.227 E28.33706
G1 X124.755 Y141.999 E28.36442
G1 X124.112 Y141.66 E28.386
G1 X123.45 Y141.088 E28.41198
G1 X122.513 Y139.795 E28.45939
G1 X121.82 Y139.049 E28.48962
G1 X121.035 Y138.405 E28.51977
G1 X120.172 Y137.872 E28.54989
G1 X119.217 Y137.447 E28.58093
G1 X117.525 Y136.903 E28.6337
G1 X116.701 Y136.323 E28.66362
G1 X116.003 Y135.397 E28.69805
G1 X115.632 Y134.243 E28.73404
G1 X115.641 Y130.395 E28.84829
G1 X115.828 Y129.712 E28.86932
G1 X116.149 Y129.071 E28.89061
G1 X116.946 Y128.207 E28.92551
G1 X117.77 Y127.72 E28.95393
G1 X118.78 Y127.462 E28.98488
G1 X121.608 Y127.462 E29.06885
G1 X121.608 Y99.669 E29.89406
G1 X108.392 Y99.669 E30.28646
G1 X108.392 Y127.465 E31.11176
G1 X111.426 Y127.491 E31.20185
G1 X112.405 Y127.794 E31.23228
G1 X112.973 Y128.139 E31.25201
G1 X113.506 Y128.632 E31.27357
G1 X113.991 Y129.312 E31.29837
G1 X114.372 Y130.482 E31.3349
G1 X114.385 Y134.133 E31.4433
G1 X114.025 Y135.341 E31.48073
G1 X113.298 Y136.324 E31.51703
G1 X112.475 Y136.903 E31.54691
G1 X110.783 Y137.447 E31.59968
G1 X109.829 Y137.871 E31.63068
G1 X108.965 Y138.405 E31.66084
G1 X108.18 Y139.049 E31.69099
G1 X107.489 Y139.792 E31.72112
G1 X106.638 Y140.991 E31.76478
G1 X105.736 Y141.758 E31.79993
G1 X104.944 Y142.105 E31.8256
G1 X104.134 Y142.247 E31.85002
G1 X103.062 Y142.214 E31.88186
G1 X102.035 Y141.892 E31.91382
G1 X101.287 Y141.382 E31.9407
G1 X100.906 Y141.012 E31.95647
G1 X100.213 Y139.726 E31.99984
G1 X98.608 Y131.285 E32.25495
G1 X98.608 Y90.914 E33.45362
G1 X98.997 Y89.621 E33.49371
G1 X99.376 Y89.077 E33.5134
M204 S2500
G1 X99.666 Y89.278 F7200
M204 S2000
G1 F3000
G1 X100.449 Y88.569 E33.54476
G1 X101.146 Y88.25 E33.56752
G1 X101.855 Y88.111 E33.58897
G1 X128.188 Y88.114 E34.37083
G1 X128.833 Y88.243 E34.39036
G1 X129.49 Y88.532 E34.41167
G1 X130.279 Y89.196 E34.44229
G1 X130.812 Y90.07 E34.47269
G1 X131.035 Y90.995 E34.50094
G1 X131.035 Y131.266 E35.69664
G1 X129.43 Y139.632 E35.94957
G1 X129.293 Y140.036 E35.96224
G1 X128.599 Y141.014 E35.99785
G1 X127.993 Y141.471 E36.02039
G1 X127.306 Y141.771 E36.04265
G1 X126.824 Y141.863 E36.05722
G1 X125.669 Y141.87 E36.09151
G1 X124.901 Y141.673 E36.11505
G1 X124.329 Y141.376 E36.13419
G1 X123.7 Y140.831 E36.1589
G1 X122.79 Y139.568 E36.20512
G1 X122.065 Y138.788 E36.23674
G1 X121.243 Y138.114 E36.2683
G1 X120.339 Y137.555 E36.29986
G1 X119.345 Y137.113 E36.33216
G1 X117.661 Y136.572 E36.38468
G1 X116.933 Y136.05 E36.41128
G1 X116.308 Y135.21 E36.44237
G1 X115.981 Y134.164 E36.47491
G1 X115.998 Y130.421 E36.58605
G1 X116.156 Y129.853 E36.60355
G1 X116.429 Y129.293 E36.62205
G1 X117.191 Y128.469 E36.65537
G1 X117.884 Y128.059 E36.67928
G1 X118.803 Y127.819 E36.70748
G1 X121.965 Y127.819 E36.80136
G1 X121.965 Y99.312 E37.64777
G1 X108.035 Y99.312 E38.06137
G1 X108.035 Y127.82 E38.90781
G1 X111.348 Y127.841 E39.00618
G1 X112.241 Y128.112 E39.03389
G1 X112.746 Y128.415 E39.05138
G1 X113.229 Y128.858 E39.07084
G1 X113.661 Y129.452 E39.09265
G1 X114.015 Y130.514 E39.12589
G1 X114.036 Y134.057 E39.23109
G1 X113.692 Y135.209 E39.26679
G1 X113.067 Y136.05 E39.2979
G1 X112.339 Y136.572 E39.3245
G1 X110.655 Y137.113 E39.37702
G1 X109.662 Y137.555 E39.40929
G1 X108.757 Y138.113 E39.44086
G1 X107.935 Y138.788 E39.47244
G1 X107.211 Y139.567 E39.50402
G1 X106.388 Y140.735 E39.54644
G1 X105.566 Y141.443 E39.57865
G1 X104.859 Y141.758 E39.60163
G1 X104.124 Y141.89 E39.6238
G1 X103.142 Y141.866 E39.65297
G1 X102.213 Y141.582 E39.68181
G1 X101.501 Y141.097 E39.70739
G1 X101.175 Y140.776 E39.72097
G1 X100.559 Y139.632 E39.75955
G1 X98.965 Y131.268 E40.01236
G1 X98.965 Y90.94 E41.20975
G1 X99.308 Y89.8 E41.2451
G1 X99.632 Y89.327 E41.26212
M204 S2500
G1 X99.921 Y89.529 F7200
M204 S2000
G1 F3000
G1 X100.667 Y88.854 E41.29199
G1 X101.271 Y88.585 E41.31162
G1 X101.872 Y88.468 E41.3298
G1 X128.17 Y88.471 E42.11062
G1 X128.741 Y88.589 E42.12793
G1 X129.32 Y88.847 E42.14675
G1 X130.024 Y89.448 E42.17423
G1 X130.491 Y90.228 E42.20122
G1 X130.678 Y91.015 E42.22524
G1 X130.678 Y131.249 E43.41984
G1 X129.082 Y139.552 E43.67088
G1 X128.964 Y139.896 E43.68168
G1 X128.361 Y140.747 E43.71265
G1 X127.83 Y141.152 E43.73248
G1 X127.182 Y141.436 E43.75349
G1 X126.807 Y141.506 E43.76482
G1 X125.691 Y141.512 E43.79796
G1 X125.045 Y141.346 E43.81776
G1 X124.546 Y141.091 E43.8344
G1 X123.95 Y140.575 E43.85781
G1 X123.067 Y139.342 E43.90284
G1 X122.31 Y138.528 E43.93584
G1 X121.452 Y137.822 E43.96883
G1 X120.506 Y137.239 E44.00182
G1 X119.473 Y136.779 E44.03539
G1 X117.798 Y136.241 E44.08763
G1 X117.166 Y135.778 E44.11089
G1 X116.64 Y135.074 E44.13698
G1 X116.33 Y134.084 E44.16778
G1 X116.355 Y130.448 E44.27574
G1 X116.485 Y129.992 E44.28982
G1 X116.711 Y129.515 E44.30549
G1 X117.435 Y128.731 E44.33718
G1 X118 Y128.397 E44.35667
G1 X118.827 Y128.176 E44.38209
G1 X122.322 Y128.176 E44.48586
G1 X122.322 Y98.955 E45.35347
G1 X107.678 Y98.955 E45.78827
G1 X107.678 Y128.176 E46.65588
G1 X111.271 Y128.19 E46.76256
G1 X112.079 Y128.431 E46.78759
G1 X112.519 Y128.691 E46.80276
G1 X112.975 Y129.11 E46.82115
G1 X113.333 Y129.595 E46.83905
G1 X113.658 Y130.545 E46.86886
G1 X113.678 Y134.031 E46.97237
G1 X113.36 Y135.075 E47.00477
G1 X112.834 Y135.778 E47.03084
G1 X112.202 Y136.241 E47.0541
G1 X110.528 Y136.779 E47.10631
G1 X109.494 Y137.238 E47.1399
G1 X108.549 Y137.822 E47.17288
G1 X107.69 Y138.527 E47.20587
G1 X106.933 Y139.342 E47.2389
G1 X106.108 Y140.512 E47.28141
G1 X105.394 Y141.129 E47.30943
G1 X104.772 Y141.411 E47.32971
G1 X104.111 Y141.533 E47.34967
G1 X103.222 Y141.517 E47.37607
G1 X102.345 Y141.249 E47.4033
G1 X101.719 Y140.813 E47.42595
G1 X101.445 Y140.542 E47.43739
G1 X100.904 Y139.538 E47.47125
G1 X99.322 Y131.251 E47.72175
G1 X99.322 Y90.968 E48.9178
G1 X99.64 Y89.932 E48.94998
G1 X99.886 Y89.578 E48.96278
M204 S2500
G1 X100.174 Y89.782 F7200
M204 S2000
G1 F3000
G1 X100.841 Y89.166 E48.98974
G1 X101.362 Y88.93 E49.00672
G1 X101.89 Y88.825 E49.0227
G1 X128.15 Y88.828 E49.80239
G1 X128.647 Y88.934 E49.81748
G1 X129.148 Y89.161 E49.83381
G1 X129.767 Y89.698 E49.85814
G1 X130.169 Y90.384 E49.88175
G1 X130.321 Y91.036 E49.90163
G1 X130.321 Y131.231 E51.09507
G1 X128.734 Y139.471 E51.34422
G1 X128.635 Y139.754 E51.35312
G1 X128.123 Y140.48 E51.3795
G1 X127.631 Y140.855 E51.39787
G1 X127.06 Y141.099 E51.41631
G1 X126.789 Y141.15 E51.4245
G1 X125.712 Y141.155 E51.45648
G1 X125.187 Y141.018 E51.47259
G1 X124.762 Y140.806 E51.48669
G1 X124.2 Y140.32 E51.50875
G1 X123.345 Y139.116 E51.5526
G1 X122.556 Y138.267 E51.58701
G1 X121.66 Y137.531 E51.62144
G1 X120.673 Y136.922 E51.65587
G1 X119.6 Y136.445 E51.69073
G1 X117.937 Y135.91 E51.7426
G1 X117.4 Y135.508 E51.76252
G1 X116.971 Y134.938 E51.7837
G1 X116.679 Y134.004 E51.81276
G1 X116.705 Y130.521 E51.91618
G1 X116.815 Y130.13 E51.92824
G1 X117.021 Y129.693 E51.94258
G1 X117.677 Y128.994 E51.97104
G1 X118.118 Y128.735 E51.98623
G1 X118.852 Y128.533 E52.00883
G1 X122.679 Y128.533 E52.12246
G1 X122.679 Y98.598 E53.01127
G1 X107.321 Y98.598 E53.46727
G1 X107.321 Y128.533 E54.35608
G1 X111.196 Y128.54 E54.47113
G1 X111.919 Y128.751 E54.49349
G1 X112.292 Y128.968 E54.5063
